svgs/sharp-light/person-circle-question.svg

<svg xmlns="http://www.w3.org/2000/svg" viewBox="0 0 576 512"><!--! Font Awesome Pro 6.6.0 by @fontawesome - https://fontawesome.com License - https://fontawesome.com/license (Commercial License) Copyright 2024 Fonticons, Inc. --><path d="M160 80a24 24 0 1 0 0-48 24 24 0 1 0 0 48zm0-80a56 56 0 1 1 0 112A56 56 0 1 1 160 0zM99.3 128l9.6 0 102.2 0 9.6 0 4.5 8.5 66.7 124.9c-7.5 9.8-14 20.5-19.3 31.8l-48.6-91L224 496l0 16-32 0 0-16 0-144-64 0 0 144 0 16-32 0 0-16 0-293.9L46.1 295.5l-7.5 14.1L10.3 294.6l7.5-14.1 76.9-144 4.5-8.5zM128 320l64 0 0-160-64 0 0 160zm416 48a112 112 0 1 0 -224 0 112 112 0 1 0 224 0zm-256 0a144 144 0 1 1 288 0 144 144 0 1 1 -288 0zm160 80l-32 0 0-32 32 0 0 32zM368 329.6c0-23 18.6-41.6 41.6-41.6l40.5 0c25.4 0 45.9 20.6 45.9 45.9c0 17.1-9.5 32.7-24.5 40.6L448 386.9l0 13.1-32 0 0-16 0-6.8 0-9.7 8.6-4.5 32-16.8c4.6-2.4 7.4-7.2 7.4-12.3c0-7.7-6.2-13.9-13.9-13.9l-40.5 0c-5.3 0-9.6 4.3-9.6 9.6l0 6.4-32 0 0-6.4z"/></svg>

<svg xmlns="http://www.w3.org/2000/svg" viewBox="0 0 576 512"><!--! Font Awesome Pro 6.4.0 by @fontawesome - https://fontawesome.com License - https://fontawesome.com/license (Commercial License) Copyright 2023 Fonticons, Inc. --><path d="M160 80a24 24 0 1 0 0-48 24 24 0 1 0 0 48zm0-80a56 56 0 1 1 0 112A56 56 0 1 1 160 0zM99.3 128h9.6H211.1h9.6l4.5 8.5 66.7 124.9c-7.5 9.8-14 20.5-19.3 31.8l-48.6-91V496v16H192V496 352H128V496v16H96V496 202.1L46.1 295.5l-7.5 14.1L10.3 294.6l7.5-14.1 76.9-144 4.5-8.5zM128 320h64V160H128V320zm416 48a112 112 0 1 0 -224 0 112 112 0 1 0 224 0zm-256 0a144 144 0 1 1 288 0 144 144 0 1 1 -288 0zm160 80H416V416h32v32zM368 329.6c0-23 18.6-41.6 41.6-41.6h40.5c25.4 0 45.9 20.6 45.9 45.9c0 17.1-9.4 32.7-24.5 40.6L448 386.9V400H416V384v-6.8-9.7l8.6-4.5 32-16.8c4.6-2.4 7.4-7.2 7.4-12.3c0-7.7-6.2-13.9-13.9-13.9H409.6c-5.3 0-9.6 4.3-9.6 9.6V336l-32 0v-6.4z"/></svg>
